X: 11018
T: CLOVER'S POLKA
C: Bob McQuillen 12 April 99
B: Bob's Note Book 11 #18
R: polka
Z: 2020 John Chambers <jc:trillian.mit.edu>
M: C
L: 1/8
K: D
A2 \
| F3E  D2E2 | F2A2 A2FA | B3A  B2dB | A2F2 E2DE |\
| F2FE D2DE | F2A2 A2FA | B2dB ABde | f2e2 e2  :|
|: de \
| f2fe d2ef | e2d2 B4   | B3A  FEDE | F2B2 B2dB |\
| A2d2 B2dB | A2AG FED2 | d2fe dBAG | F2D2 D2  :|
%%begintext align
%% I have some
%% very lovely female acquaintances in my
%% life, mostly two-legged ones (as you might guess),
%% but this one happens to have _four_ legs, brown
%% hair, brown eyes, and boy, what a sweetheart
%% she is! She is Russell Orzechowski's brown
%% Lab, and a nicer dog never was.
%%endtext

%%sep 1 1 500

%%sep 1 1 500

